X:28
T:Proclamez les merveilles de Dieu
M:C|
L:1/8
K:C
"^Refrain"yEF|"Do"G2 EC "Fa"F2 GA|"Do"G6 AB|"Lam"c4 "Re"B2 A2|"Sol"A2 G2 z2 EF|\
"Do"G2 EC "Fa"F2 GA|"Sol"B6 "Lam"c"Fa"A|"Do"G4 "Sol"F4|"Do"E6||
"^Couplets"yG|"Do"G16|"Fa"A4z3G|"Do"G16FE|"Sol"D2D2z3C|\
"Lam"C16"Rem"D2"Sol"D2|"Do"E4||
